X: 11564
T: LAMMIKIN
O: Old ballad air.
%R: air, march
B: W. Hamilton "Universal Tune-Book" Vol. 1 Glasgow 1844 p.154 #4
S: http://imslp.org/wiki/Hamilton's_Universal_Tune-Book_(Various)
Z: 2016 John Chambers <jc:trillian.mit.edu>
M: C
L: 1/8
K: F
% - - - - - - - - - - - - - - - - - - - - - - - - -
F |\
AA A(A/B/) A>GGF | A>GAc (dc) zF |\
AAA>B AGGF | A>GAc (dc) zc |\
f>ccc d>ccA | f>ccc (dc) zc |\
f>ccc d>c c(B/A/) | G>G Ac dc z |]
% - - - - - - - - - - - - - - - - - - - - - - - - -

%%sep 1 1 500
%%sep 1 1 500

